X: 1
T: Serpentiner och Konfetti
T: Serpentina
C: Mats Edén
R: Hornpipe (Not Swung)
M: 4/4
L: 1/8
K:D
Z: ABC transcription by Verge Roller
r: 32
|: z | "D" FGAF "Em" GABG | "A" EFGE "D" F2 d2 | "A" cded c2 B2 | "G" BABc B2 "A7" AG |
"D" FGAF "Em" GABG | "A" EFGE "D" F2 d2 | "A" cded "A7" cABc | "A" e2 "D" d2 d3 :|
|: e | "D" f2 fA "A" g2 gA | "D" agfg afga | "Em" b2 ba g2 f2  | "A" efge fded |
"D" f2 fA "A" g2 gA |  "D" agfg afga | "Em" b2 ba g2 f2 | "A" efge "D" d3 :|
